package/converter/svg/duotone/flashlight.svg

<svg xmlns="http://www.w3.org/2000/svg" viewBox="0 0 640 512"><!-- Font Awesome Pro 6.0.0-alpha2 by @fontawesome - https://fontawesome.com License - https://fontawesome.com/license (Commercial License) --><defs><style>.fa-secondary{opacity:.4}</style></defs><path d="M400.125 149.25L384 160H32C14.375 160 0 174.375 0 192V320C0 337.625 14.375 352 32 352H384L400.125 362.75C443.25 391.5 512 416 576 416V96C512 96 443.25 120.5 400.125 149.25ZM288 288H256C238.375 288 224 273.625 224 256S238.375 224 256 224H288C305.625 224 320 238.375 320 256S305.625 288 288 288Z" class="fa-secondary"/><path d="M608 96H576V416H608C625.625 416 640 401.625 640 384V128C640 110.375 625.625 96 608 96ZM288 224H256C238.375 224 224 238.375 224 256S238.375 288 256 288H288C305.625 288 320 273.625 320 256S305.625 224 288 224Z" class="fa-primary"/></svg>

<svg xmlns="http://www.w3.org/2000/svg" viewBox="0 0 640 512"><!--! Font Awesome Pro 6.6.0 by @fontawesome - https://fontawesome.com License - https://fontawesome.com/license (Commercial License) Copyright 2024 Fonticons, Inc. --><defs><style>.fa-secondary{opacity:.4}</style></defs><path class="fa-secondary" d="M0 208l0 96c0 26.5 21.5 48 48 48l336 0s80 64 192 64l0-320c-112 0-192 64-192 64L48 160c-26.5 0-48 21.5-48 48zm224 48c0-17.7 14.3-32 32-32l32 0c17.7 0 32 14.3 32 32s-14.3 32-32 32l-32 0c-17.7 0-32-14.3-32-32z"/><path class="fa-primary" d="M608 96l-32 0 0 320 32 0c17.7 0 32-14.3 32-32l0-256c0-17.7-14.3-32-32-32zM256 224c-17.7 0-32 14.3-32 32s14.3 32 32 32l32 0c17.7 0 32-14.3 32-32s-14.3-32-32-32l-32 0z"/></svg>
